X:1
T:Tidings (Walch)
T:Tidings (Walch)
T:James Walch, 1875
T:Public Domain Courtesy of the Cyber Hymnal™
C:James Walch, 1875
Z:Public Domain
Z:Courtesy of the Cyber Hymnal™
%%score ( 1 2 ) ( 3 4 )
L:1/8
Q:1/4=130
M:4/4
K:Bb
V:1 treble 
V:2 treble 
V:3 bass 
V:4 bass 
V:1
 [DB]4 [B,D]2 [B,E]2 | [B,F]6 F2 | [DF]2 [FB]2 [Fd]2 [Ec]2 | [Ec]4 [DB]4 | [GB]4 [FA]2 [EG]2 | %5
 [DF]6 F2 | A2 G-[DG] [CF]2 [CE]2 | [B,D]8 | [B,D]4 [CE]3 [CE] | [DF]6 [DF]2 | %10
 [D^F]2 [DG]2 [FB]2 [FA]2 | [^FA]4 G4 | [=EG]4 [FA]2 [EB]2 | [Fc]4 F4 | [DA]2 [DG]2 [CF]2 [C=E]2 | %15
 [CF]8 | [EA]4 [EG]2 F2 | [DB]4 F4 | [EA]4 [EG]2 F2 | [Dd]8 | [Fd]4 [Fe]2 [Fd]2 | %21
 d2 c2 [GB]2 [EG]2 | [DF]2 [FB]2 [Ec]3 [DB] | [DB]8 |] %24
V:2
 x8 | x6 E2 | x8 | x8 | x8 | x8 | E3 x5 | x8 | x8 | x8 | x8 | x8 | x8 | x8 | x8 | x8 | x6 E2 | x8 | %18
 x6 E2 | x8 | x8 | E4 x4 | x8 | x8 |] %24
V:3
 [B,,F,]4 [B,,F,]2 [C,F,]2 | [D,F,]6 [C,A,]2 | [B,,B,]2 [D,B,]2 [F,B,]2 [F,A,]2 | [F,A,]4 [G,B,]4 | %4
 [E,B,]4 [E,B,]2 [E,B,]2 | [B,,B,]6 [D,B,]2 | [F,C]2 [F,B,]2 [F,,A,]2 [F,,A,]2 | [B,,F,]8 | %8
 [B,,B,]4 [B,,A,]3 [B,,G,] | [B,,F,]6 [B,,B,]2 | [D,A,]2 [D,B,]2 [D,D]2 [D,C]2 | [D,C]4 [G,,B,]4 | %12
 [C,B,]4 [C,C]2 [B,,C]2 | [A,,C]4 [D,A,]4 | [B,,C]2 [B,,B,]2 [C,A,]2 [C,G,]2 | [F,,A,]8 | %16
 [F,C]4 [F,B,]2 [F,A,]2 | [B,,B,]4 [D,B,]4 | [F,C]4 [F,B,]2 [F,A,]2 | B,8 | %20
 [G,=B,]4 [G,B,]2 [G,B,]2 | [C,C]4 [E,G,]2 [E,B,]2 | [F,B,]2 [F,D]2 [F,,A,]3 [B,,B,] | [B,,B,]8 |] %24
V:4
 x8 | x8 | x8 | x8 | x8 | x8 | x8 | x8 | x8 | x8 | x8 | x8 | x8 | x8 | x8 | x8 | x8 | x8 | x8 | %19
 (B,,4 _A,4) | x8 | x8 | x8 | x8 |] %24

